X:1
T:Open Thy Heart
T:Open Thy Heart
T:Adam Geibel
T:Richard Henry Buck, 1901
T:Public Domain Courtesy of the Cyber Hymnal™
T:Public Domain Courtesy of the Cyber Hymnal™
C:Adam Geibel
Z:Public Domain
Z:Courtesy of the Cyber Hymnal™
%%score ( 1 2 ) ( 3 4 )
L:1/8
Q:1/4=95
M:9/8
K:Db
V:1 treble 
V:2 treble 
V:3 bass 
V:4 bass 
V:1
 [FA][=E=G][FA] | [Fd]4 [Ac][GB] [FA][EG][DF] | (A2 =G) [C_G]2 z [EG][=DF][EG] | %3
w: 1.~O- pen thy|heart to the love of the|Sav- * ior, List to His|
w: 2.~Oft in the|sha- dow, when friends all for-|sake * you, Je- sus is|
 [ce]4 [Bd][Ac] ([GB][FA])[EG] | [DF]3- [DF]2 z [FA][=E=G][FA] | [Af]4 [Ge][Fd] ([Fd][Gc])[Ad] | %6
w: plead- ing while yet * you|may; * His is the|hand that will safe- * ly|
w: wait- ing to hear * your|call; * Lead- ing the|way thro’ the storm * and|
 [Ge]3 [GB]2 z [Bd][Ac][GB] | [FA]4 [=E=G][FA] [_GB]2 [Gc] | [Fd]3- [Fd]2 z ||"^Refrain" A=GA | %10
w: lead you, Up to the|glo- ry of end- less|day. *|O- pen thy|
w: dark- ness, Sav- ior— Re-|deem- er— yes, all in|all. *||
 e3- [Ge]2 z A=GA | d3- [Fd]2 z FFF | [Fd]3 [Fd]2 [FB] [Ec][Fd][Ec] | [DB]3- [DB]2 z [Gc][GB][Gc] | %14
w: heart! O- pen thy heart!|* Let in the sun-|shine from Hea- ven a- bove;|List * to His voice,|
w: ||||
 d6 [Ae][Ad][Ae] | [Af]3- [Af]2 z [Be][Bd][GB] | [FA]4 [Fd][DF] (AG)[CE] | D6 |] %18
w: come and re- joice!|O- * pen thy heart|to the Sav- ior’s * love.||
w: ||||
V:2
 x3 | x9 | C3 x6 | x9 | x9 | x9 | x9 | x9 | x6 || x3 | _GGG x6 | (FFG x2 F) FF x | x9 | x9 | %14
 (F2 F F2 A) x3 | x9 | x6 C2 x | D6 |] %18
V:3
 z3 | [D,A,][D,A,][D,A,] [D,A,][D,A,][D,A,] [D,A,][D,A,][D,A,] | [A,,A,]3 [A,,A,]2 z4 | %3
 [A,,A,][A,,A,][A,,A,] [A,,A,][A,,A,][A,,A,] [A,,A,]2 [A,,A,] | [D,A,]3- [D,A,]2 z4 | %5
 [D,D][D,D][D,D] [D,D][D,A,][D,A,] [D,A,][E,A,][F,_C] | [G,B,]3 [G,D]2 z4 | %7
 [A,D][A,D][A,D] [A,D][A,D][A,D] [A,,A,]2 [A,,A,] | [D,A,]3- [D,A,]2 z || z3 | %10
 [A,C][A,C][A,C] [A,C]2 z4 | [D,A,][D,A,][D,B,] [D,A,]2 z F,F,F, | %12
 [B,,B,]3 [B,,B,]2 [D,B,] [F,=A,][F,A,][F,A,] | [B,,B,]3- [B,,B,]2 z [A,E][A,D][A,E] | %14
 [D,D]2 [D,A,] [D,A,]2 [F,D] [A,C][A,B,][A,C] | [D,D]2 [D,D] [D,D]2 z [G,D][G,D][G,D] | %16
 [A,D]2 [A,D] [A,D][A,D]A, [A,,E,]2 [A,,G,] | [D,F,]6 |] %18
V:4
 x3 | x9 | x9 | x9 | x9 | x9 | x9 | x9 | x6 || x3 | x9 | x6 F,F,F, | x9 | x9 | x9 | x9 | x5 A, x3 | %17
 x6 |] %18

